X: 353
T: The Wild Irish Boy
M:6/8
L:1/8
B:O'Neill's 353
N:"Boldly."
N:"collected by Mrs. Fitzgerad"
N:bar 4 has 7/8ths
Z:Transcribed by Chris Falt, cfalt@trytel.com
K:G
(DE/2F/2) \
| GBD (E/2G2).E/2 | DA,B, G,2(A,/2B,/2) \
| CEC (B,<D)G/2A/2 | BcB A2(DE/2F/2) |
  GBD (E/2G2).E/2 | DB,G, A,2(A,/2B,/2) \
| CEC (B,<D)G/2A/2 | BcB G2 ||


